X:1
T: Sir John Stuart Forbes of Fettercairn
C:Alexander Walker
R:Strathspey
Q: 128
K:Bb
M:4/4
L:1/16
|:d2|B3F FFF2 D3B, F3B,|G3B, F3B, EC3 C3F|B3F FFF2 D3B, F3D|E3D C3B, A,C3 C3d|
B3F FFF2 D3B, F3B,|G3B, F3B, EC3 C3F|d3B edcA B3F G3E|G3B F3e dB3 B2e2|
df3 b3f g3f b3d|c3B d3B cG3 G3e|df3 b3f g3f b3d|G3c BAGF B4 B3e|
df3 b3f g3f b3d|c3B d3B cG3 GB3|F3B d3B GB3 e3g|fb3 f3e dB3 B2:|
